svg/on.svg

<?xml version="1.0" encoding="UTF-8"?>
<svg xmlns="http://www.w3.org/2000/svg" xmlns:xlink="http://www.w3.org/1999/xlink" width="32" height="32" viewBox="0 0 32 32">
<path fill-rule="nonzero" fill="rgb(0%, 0%, 0%)" fill-opacity="1" d="M 23.039062 7.039062 L 8.960938 7.039062 C 4.019531 7.039062 0 11.058594 0 16 C 0 20.941406 4.019531 24.960938 8.960938 24.960938 L 23.039062 24.960938 C 27.980469 24.960938 32 20.941406 32 16 C 32 11.058594 27.980469 7.039062 23.039062 7.039062 M 23.039062 23.679688 C 18.804688 23.679688 15.359375 20.234375 15.359375 16 C 15.359375 11.765625 18.804688 8.320312 23.039062 8.320312 C 27.273438 8.320312 30.71875 11.765625 30.71875 16 C 30.71875 20.234375 27.273438 23.679688 23.039062 23.679688 "/>
</svg>

<svg role="img" viewBox="0 0 32 32" xmlns="http://www.w3.org/2000/svg"><path d="M23.04 7.04H8.96C4.02 7.04 0 11.058 0 16s4.02 8.96 8.96 8.96h14.08c4.94 0 8.96-4.019 8.96-8.96s-4.02-8.96-8.96-8.96m0 16.64c-4.235 0-7.68-3.446-7.68-7.68s3.445-7.68 7.68-7.68c4.233 0 7.679 3.446 7.679 7.68s-3.446 7.68-7.68 7.68" fill="rgb(0%, 0%, 0%)"/></svg>
